app/assets/images/heroicons/solid/play-pause.svg

<svg width="24" height="24" viewBox="0 0 24 24" fill="none" xmlns="http://www.w3.org/2000/svg">
<path d="M15 6.75C14.5858 6.75 14.25 7.08579 14.25 7.5V18C14.25 18.1989 14.329 18.3897 14.4697 18.5303C14.6103 18.671 14.8011 18.75 15 18.75H15.75C16.1642 18.75 16.5 18.4142 16.5 18V7.5C16.5 7.08579 16.1642 6.75 15.75 6.75H15Z" fill="#0F172A"/>
<path d="M20.25 6.75C19.8358 6.75 19.5 7.08579 19.5 7.5V18C19.5 18.4142 19.8358 18.75 20.25 18.75H21C21.4142 18.75 21.75 18.4142 21.75 18L21.75 7.5C21.75 7.30109 21.671 7.11032 21.5303 6.96967C21.3897 6.82902 21.1989 6.75 21 6.75H20.25Z" fill="#0F172A"/>
<path d="M5.05526 7.06061C3.80528 6.34633 2.25 7.24889 2.25 8.68856V16.8114C2.25 18.2511 3.80528 19.1536 5.05526 18.4394L12.1628 14.3779C13.4224 13.6581 13.4224 11.8418 12.1628 11.122L5.05526 7.06061Z" fill="#0F172A"/>
</svg>

<svg xmlns="http://www.w3.org/2000/svg" viewBox="0 0 24 24" fill="currentColor" aria-hidden="true" data-slot="icon">
  <path d="M15 6.75a.75.75 0 0 0-.75.75V18a.75.75 0 0 0 .75.75h.75a.75.75 0 0 0 .75-.75V7.5a.75.75 0 0 0-.75-.75H15ZM20.25 6.75a.75.75 0 0 0-.75.75V18c0 .414.336.75.75.75H21a.75.75 0 0 0 .75-.75V7.5a.75.75 0 0 0-.75-.75h-.75ZM5.055 7.06C3.805 6.347 2.25 7.25 2.25 8.69v8.122c0 1.44 1.555 2.343 2.805 1.628l7.108-4.061c1.26-.72 1.26-2.536 0-3.256L5.055 7.061Z"/>
</svg>
